app/images/icon/search-green.svg

<svg width="20" height="20" viewBox="0 0 20 20" fill="none" xmlns="http://www.w3.org/2000/svg">
<path d="M8.24218 16.4718C3.69742 16.4718 0 12.7772 0 8.23588C0 3.69459 3.69742 0 8.24218 0C12.7869 0 16.4844 3.69459 16.4844 8.23588C16.4844 12.7772 12.7869 16.4718 8.24218 16.4718ZM8.24218 1.5613C4.55898 1.5613 1.5625 4.5555 1.5625 8.23588C1.5625 11.9163 4.55898 14.9105 8.24218 14.9105C11.9254 14.9105 14.9219 11.9163 14.9219 8.23588C14.9219 4.5555 11.9254 1.5613 8.24218 1.5613ZM19.7712 19.7713C20.0763 19.4665 20.0763 18.9722 19.7712 18.6673L16.2751 15.1739C15.97 14.869 15.4753 14.869 15.1702 15.1739C14.8651 15.4788 14.8651 15.9731 15.1702 16.2779L18.6663 19.7713C18.8188 19.9238 19.0188 20 19.2188 20C19.4187 20 19.6186 19.9238 19.7712 19.7713Z" fill="#63A60E"/>
</svg>

<svg width="20" height="20" fill="none" xmlns="http://www.w3.org/2000/svg"><path d="M8.242 16.472C3.697 16.472 0 12.777 0 8.236S3.697 0 8.242 0c4.545 0 8.242 3.695 8.242 8.236s-3.697 8.236-8.242 8.236zm0-14.91c-3.683 0-6.68 2.994-6.68 6.674s2.997 6.675 6.68 6.675 6.68-2.995 6.68-6.675c0-3.68-2.997-6.675-6.68-6.675zm11.53 18.21a.78.78 0 000-1.105l-3.497-3.493a.782.782 0 00-1.105 1.104l3.496 3.493a.779.779 0 001.105 0z" fill="#63A60E"/></svg>
